**kern	**text	**kern	**text	**kern	**text	**kern	**text	**kern	**text
*staff5	*staff5	*staff4	*staff4	*staff3	*staff3	*staff2	*staff2	*staff1	*staff1
*I"Basso	*	*I"Tenore	*	*I"Alto	*	*I"Soprano II	*	*I"Soprano I	*
=1-	=1-	=1-	=1-	=1-	=1-	=1-	=1-	=1-	=1-
*clefF4	*	*clefGv2	*	*clefGv2	*	*clefG2	*	*clefG2	*
*k[b-]	*	*k[b-]	*	*k[b-]	*	*k[b-]	*	*k[b-]	*
*met(c|)	*	*met(c|)	*	*met(c|)	*	*met(c|)	*	*met(c|)	*
*M2/2	*	*M2/2	*	*M2/2	*	*M2/2	*	*M2/2	*
1GG	O-	1B-	O-	1d	O-	1r	.	1g	O-
=2	=2	=2	=2	=2	=2	=2	=2	=2	=2
1D	-mnes	1A	-mnes	1d	-mnes	1r	.	1f	-mnes
=3	=3	=3	=3	=3	=3	=3	=3	=3	=3
2BB-/	a-	2B-\	a-	2d\	a-	1r	.	2f/	a-
[2BB-/	-mi-	[2B-\	-mi-	[2d\	-mi-	.	.	[2f/	-mi-
=4	=4	=4	=4	=4	=4	=4	=4	=4	=4
2BB-/]	.	2B-\]	.	2d\]	.	1r	.	2f/]	.
2BB-/	-ci	2F/	-ci	2B-\	-ci	.	.	2d/	-ci
=5	=5	=5	=5	=5	=5	=5	=5	=5	=5
1E-	me-	1G	me-	1B-	me-	1r	.	1e-	me-
=6	=6	=6	=6	=6	=6	=6	=6	=6	=6
1BB-	-i	1F	-i	1B-	-i	1r	.	1d	-i
=7	=7	=7	=7	=7	=7	=7	=7	=7	=7
2r	.	[1B-	de-	[1d	de-	1r	.	2r	.
2GG/	de-	.	.	.	.	.	.	[2g/	de-
=8	=8	=8	=8	=8	=8	=8	=8	=8	=8
1BB-	-re-	1B-]	.	1d]	.	1r	.	2g/]	.
.	.	.	.	.	.	.	.	[2f/	-re-
=9	=9	=9	=9	=9	=9	=9	=9	=9	=9
1C	-li-	2A/	-re-	2.c\	-re-	1r	.	2f/]	.
.	.	2G/	-li-	.	.	.	.	2e-/	-li-
.	.	.	.	4B-\	-li-	.	.	.	.
=10	=10	=10	=10	=10	=10	=10	=10	=10	=10
[1D	-que-	2F/	-que-	2A/	-que-	1r	.	[1d	-que-
.	.	2G/	.	2B-\	.	.	.	.	.
=11	=11	=11	=11	=11	=11	=11	=11	=11	=11
!!linebreak:original
2D\]	.	2G/	.	2A/	.	1r	.	2d/]	.
2D\	-runt	2F#/	-runt	2A/	-runt	.	.	2d/	-runt
=12	=12	=12	=12	=12	=12	=12	=12	=12	=12
1GG	me,	1G	me,	1Bn	me,	1r	.	1d	me,
=13	=13	=13	=13	=13	=13	=13	=13	=13	=13
2r	.	2r	.	2r	.	1r	.	2r	.
[2D\	et	[2A/	et	[2d\	et	.	.	[2f/	et
=14	=14	=14	=14	=14	=14	=14	=14	=14	=14
2D\]	.	2A/]	.	2d\]	.	1r	.	2f/]	.
2BB-/	prae-	2B-\	prae-	2d\	prae-	.	.	2f/	prae-
=15	=15	=15	=15	=15	=15	=15	=15	=15	=15
2E-\	-va-	2B-\	-va-	2e-\	-va-	1r	.	2g/	-va-
2BB-/	-lu-	2B-\	-lu-	2d\	-lu-	.	.	2f/	-lu-
=16	=16	=16	=16	=16	=16	=16	=16	=16	=16
1C	-e-	1G	-e-	1c	-e-	1r	.	1e-	-e-
=17	=17	=17	=17	=17	=17	=17	=17	=17	=17
2D\	-runt	2F/	-runt	2A/	-runt	1r	.	2d/	-runt
2GG/	in-	2B-\	in-	2d\	in-	.	.	2g/	in-
=18	=18	=18	=18	=18	=18	=18	=18	=18	=18
2D\	-si-	2A/	-si-	2d\	-si-	1r	.	2f/	-si-
2AA/	-di-	2A/	-di-	2c#i\	-di-	.	.	2e/	-di-
=19	=19	=19	=19	=19	=19	=19	=19	=19	=19
1D	-an-	2.A/	-an-	1d	-an-	1r	.	1f	-an-
.	.	4B-\	.	.	.	.	.	.	.
=20	=20	=20	=20	=20	=20	=20	=20	=20	=20
1C	-tes	1c	-tes	1G	-tes	1r	.	1e	-tes
=21	=21	=21	=21	=21	=21	=21	=21	=21	=21
2.D\	mi-	2A/	mi-	1d	mi-	1r	.	[1f	mi-
.	.	[2B-\	.	.	.	.	.	.	.
4E-\	.	.	.	.	.	.	.	.	.
=22	=22	=22	=22	=22	=22	=22	=22	=22	=22
!!pagebreak:original
1F	.	2B-\]	.	1c	.	1r	.	1f]	.
.	.	2A/	.	.	.	.	.	.	.
=23	=23	=23	=23	=23	=23	=23	=23	=23	=23
1BB-	-hi:	1B-	-hi:	1d	-hi:	1r	.	1f	-hi:
=24	=24	=24	=24	=24	=24	=24	=24	=24	=24
2r	.	2r	.	2r	.	1r	.	2r	.
[2E-\	tra-	[2B-\	tra-	[2e-\	tra-	.	.	[2g/	tra-
=25	=25	=25	=25	=25	=25	=25	=25	=25	=25
4E-\]	.	4B-\]	.	4e-\]	.	1r	.	4g/]	.
4C/	-di-	4c\	-di-	4e-i\	-di-	.	.	4g/	-di-
2C/	-dit	2c\	-dit	2e-\	-dit	.	.	2g/	-dit
=26	=26	=26	=26	=26	=26	=26	=26	=26	=26
1D	me	1A	me	1d	me	1r	.	1f	me
=27	=27	=27	=27	=27	=27	=27	=27	=27	=27
1BB-	quem	1B-	quem	1d	quem	1r	.	1f	quem
=28	=28	=28	=28	=28	=28	=28	=28	=28	=28
1C	di-	1A	di-	1c	di-	1r	.	1e-	di-
=29	=29	=29	=29	=29	=29	=29	=29	=29	=29
1D	-li-	1F#	-li-	1A	-li-	1r	.	1d	-li-
=30	=30	=30	=30	=30	=30	=30	=30	=30	=30
1GG	-ge-	1G	-ge-	1B-	-ge-	1r	.	1d	-ge-
=31	=31	=31	=31	=31	=31	=31	=31	=31	=31
[1D	-bam:	[1F#	-bam:	[1A	-bam:	1r	.	[1d	-bam:
=32	=32	=32	=32	=32	=32	=32	=32	=32	=32
1D]	.	1F#]	.	1A]	.	1r	.	1d]	.
!!linebreak:original
=33||	=33||	=33||	=33||	=33||	=33||	=33||	=33||	=33||	=33||
!!linebreak:original
1G	Et	1B-	Et	1d	Et	1r	.	1g	Et
=34	=34	=34	=34	=34	=34	=34	=34	=34	=34
2D\	ter-	2A/	ter-	2d\	ter-	1r	.	2f#/	ter-
2G\	-ri-	2B-\	-ri-	2d\	-ri-	.	.	2g/	-ri-
=35	=35	=35	=35	=35	=35	=35	=35	=35	=35
[1F	-bi-	[1c	-bi-	[1f	-bi-	1r	.	[1a	-bi-
=36	=36	=36	=36	=36	=36	=36	=36	=36	=36
2F\]	.	2c\]	.	2f\]	.	1r	.	2a/]	.
2C/	-li-	2c\	-li-	2e\	-li-	.	.	2g/	-li-
=37	=37	=37	=37	=37	=37	=37	=37	=37	=37
2C/	-bus	2c\	-bus	2e\	-bus	1r	.	2g/	-bus
[2F\	o-	[2c\	o-	[2f\	o-	.	.	[2a/	o-
=38	=38	=38	=38	=38	=38	=38	=38	=38	=38
2F\]	.	2c\]	.	2f\]	.	1r	.	2a/]	.
2BB-/	-cu-	2d\	-cu-	2f\	-cu-	.	.	2b-\	-cu-
=39	=39	=39	=39	=39	=39	=39	=39	=39	=39
1BB-	-lis	1d	-lis	1f	-lis	1r	.	1b-	-lis
=40	=40	=40	=40	=40	=40	=40	=40	=40	=40
2r	.	2r	.	2r	.	1r	.	2r	.
[2E-\	pla-	[2B-\	pla-	[2e-\	pla-	.	.	[2g/	pla-
=41	=41	=41	=41	=41	=41	=41	=41	=41	=41
2E-\]	.	2B-\]	.	2e-\]	.	1r	.	2g/]	.
[2BB-/	-ga	[2B-\	-ga	[2d\	-ga	.	.	[2f/	-ga
=42	=42	=42	=42	=42	=42	=42	=42	=42	=42
2BB-/]	.	2B-\]	.	2d\]	.	1r	.	2f/]	.
2D\	cru-	2B-\	cru-	2d\	cru-	.	.	2f/	cru-
=43	=43	=43	=43	=43	=43	=43	=43	=43	=43
[1F	-de-	1A-	-de-	[1c	-de-	1r	.	[1f	-de-
=44	=44	=44	=44	=44	=44	=44	=44	=44	=44
1F]	.	1A-i	-li	1c]	.	1r	.	1f]	.
=45	=45	=45	=45	=45	=45	=45	=45	=45	=45
!!linebreak:original
1C	-li	2r	.	1c	-li	1r	.	1e	-li
.	.	2G/	per-	.	.	.	.	.	.
=46	=46	=46	=46	=46	=46	=46	=46	=46	=46
2F\	per-	2A/	-cu-	2c\	per-	1r	.	2f/	per-
[2BB-/	-cu-	[2B-\	-ti-	[2d\	-cu-	.	.	[2f/	-cu-
=47	=47	=47	=47	=47	=47	=47	=47	=47	=47
4BB-/]	.	4B-\]	.	4d\]	.	1r	.	4f/]	.
4D\	-ti-	4F/	-en-	4B-\	-ti-	.	.	4f/	-ti-
2C/	-en-	4G/	.	2c\	-en-	.	.	2e-/	-en-
.	.	4A/	.	.	.	.	.	.	.
=48	=48	=48	=48	=48	=48	=48	=48	=48	=48
1BB-	-tes,	1B-	-tes,	1G	-tes,	1r	.	1d	-tes,
=49	=49	=49	=49	=49	=49	=49	=49	=49	=49
2r	.	2r	.	2r	.	1r	.	2r	.
2C/	a-	2G/	a-	2c\	a-	.	.	2e/	a-
=50	=50	=50	=50	=50	=50	=50	=50	=50	=50
1F	-ce-	1A	-ce-	1c	-ce-	1r	.	1f	-ce-
=51	=51	=51	=51	=51	=51	=51	=51	=51	=51
1BB-	-to-	1B-	-to-	1d	-to-	1r	.	1f	-to-
=52	=52	=52	=52	=52	=52	=52	=52	=52	=52
1F	-po-	1A	-po-	1c	-po-	1r	.	1f	-po-
=53	=53	=53	=53	=53	=53	=53	=53	=53	=53
1C	-ta-	1G	-ta-	1c	-ta-	1r	.	1e-	-ta-
=54	=54	=54	=54	=54	=54	=54	=54	=54	=54
1D	-bant	1F#	-bant	1A	-bant	1r	.	1d	-bant
=55	=55	=55	=55	=55	=55	=55	=55	=55	=55
[1GG	me.	[1G	me.	[1Bni	me.	1r	.	[1d	me.
=56	=56	=56	=56	=56	=56	=56	=56	=56	=56
1GG]	.	1G]	.	1B]	.	1r	.	1d]	.
!!pagebreak:original
=57||	=57||	=57||	=57||	=57||	=57||	=57||	=57||	=57||	=57||
!!pagebreak:original
1r	.	1r	.	1r	.	1r	.	1g	In-
=58	=58	=58	=58	=58	=58	=58	=58	=58	=58
1r	.	1r	.	2r	.	1r	.	2g/	-ter
.	.	.	.	2d\	In-	.	.	2a/	i-
=59	=59	=59	=59	=59	=59	=59	=59	=59	=59
1r	.	1r	.	2d\	-ter	1r	.	1b-	-ni-
.	.	.	.	2e\	i-	.	.	.	.
=60	=60	=60	=60	=60	=60	=60	=60	=60	=60
1r	.	1r	.	1f	-ni-	1r	.	2a/	-quos
.	.	.	.	.	.	.	.	[2cc\	pro-
=61	=61	=61	=61	=61	=61	=61	=61	=61	=61
1r	.	1r	.	2e\	-quos	1r	.	2cc\]	.
.	.	.	.	[2d\	pro-	.	.	2b-\	-je-
=62	=62	=62	=62	=62	=62	=62	=62	=62	=62
1r	.	1r	.	2d\]	.	1r	.	4a/	-ce-
.	.	.	.	.	.	.	.	4g/	.
.	.	.	.	2c\	-je-	.	.	[2g/	.
=63	=63	=63	=63	=63	=63	=63	=63	=63	=63
1r	.	1r	.	2B-\	-ce-	1r	.	2g/]	.
.	.	.	.	2A/	-runt	.	.	2f#/	-runt
=64	=64	=64	=64	=64	=64	=64	=64	=64	=64
1r	.	1r	.	1G	me,	1r	.	1g	me,
=65	=65	=65	=65	=65	=65	=65	=65	=65	=65
1r	.	1r	.	2r	.	2r	.	2r	.
.	.	.	.	[2d\	et	[2a/	et	[2f#/	et
=66	=66	=66	=66	=66	=66	=66	=66	=66	=66
1r	.	1r	.	2d\]	.	2a/]	.	2f#/]	.
.	.	.	.	2d\	non	2a/	non	2f#/	non
=67	=67	=67	=67	=67	=67	=67	=67	=67	=67
1r	.	1r	.	2d\	pe-	2a/	pe-	2f#/	pe-
.	.	.	.	2d\	-per-	2a/	-per-	2f#/	-per-
=68	=68	=68	=68	=68	=68	=68	=68	=68	=68
!!linebreak:original
1r	.	1r	.	1G	-ce-	1b-	-ce-	1g	-ce-
=69	=69	=69	=69	=69	=69	=69	=69	=69	=69
1r	.	1r	.	[1d	-runt	1a	-runt	1f#	-runt
=70	=70	=70	=70	=70	=70	=70	=70	=70	=70
1r	.	1r	.	1d]	.	2r	.	2r	.
.	.	.	.	.	.	[2b-\	a-	[2g/	a-
=71	=71	=71	=71	=71	=71	=71	=71	=71	=71
1r	.	1r	.	1d	a-	2b-\]	.	2g/]	.
.	.	.	.	.	.	2a/	-ni-	2f#/	-ni-
=72	=72	=72	=72	=72	=72	=72	=72	=72	=72
1r	.	1r	.	1e-	.	[1g	-mae	2g/	-mae
.	.	.	.	.	.	.	.	[2b-\	a-
=73	=73	=73	=73	=73	=73	=73	=73	=73	=73
1r	.	1r	.	1c	-ni-	1g]	.	2b-\]	.
.	.	.	.	.	.	.	.	2a/	-ni-
=74	=74	=74	=74	=74	=74	=74	=74	=74	=74
1r	.	1r	.	1c	-mae	2.cc\	me-	2a/	-mae
.	.	.	.	.	.	.	.	[2g/	a-
.	.	.	.	.	.	4b-\	.	.	.
=75	=75	=75	=75	=75	=75	=75	=75	=75	=75
1r	.	1r	.	[1d	me-	[1a	.	2g/]	.
.	.	.	.	.	.	.	.	4f#/	-ni-
.	.	.	.	.	.	.	.	4e/	-mae
=76	=76	=76	=76	=76	=76	=76	=76	=76	=76
1r	.	1r	.	1d]	.	1a]	.	1f#i	me-
=77	=77	=77	=77	=77	=77	=77	=77	=77	=77
1r	.	1r	.	[1G	-ae.	[1bn	-ae.	[1g	-ae.
=78	=78	=78	=78	=78	=78	=78	=78	=78	=78
1r	.	1r	.	1G]	.	1b]	.	1g]	.
!!linebreak:original
=79||	=79||	=79||	=79||	=79||	=79||	=79||	=79||	=79||	=79||
!!linebreak:original
1G	Et	1B-	Et	1d	Et	1r	.	1g	Et
=80	=80	=80	=80	=80	=80	=80	=80	=80	=80
2D\	ter-	2A/	ter-	2d\	ter-	1r	.	2f#/	ter-
2G\	-ri-	2B-\	-ri-	2d\	-ri-	.	.	2g/	-ri-
=81	=81	=81	=81	=81	=81	=81	=81	=81	=81
[1F	-bi-	[1c	-bi-	[1f	-bi-	1r	.	[1a	-bi-
=82	=82	=82	=82	=82	=82	=82	=82	=82	=82
2F\]	.	2c\]	.	2f\]	.	1r	.	2a/]	.
2C/	-li-	2c\	-li-	2e\	-li-	.	.	2g/	-li-
=83	=83	=83	=83	=83	=83	=83	=83	=83	=83
2C/	-bus	2c\	-bus	2e\	-bus	1r	.	2g/	-bus
[2F\	o-	[2c\	o-	[2f\	o-	.	.	[2a/	o-
=84	=84	=84	=84	=84	=84	=84	=84	=84	=84
2F\]	.	2c\]	.	2f\]	.	1r	.	2a/]	.
2BB-/	-cu-	2d\	-cu-	2f\	-cu-	.	.	2b-\	-cu-
=85	=85	=85	=85	=85	=85	=85	=85	=85	=85
1BB-	-lis	1d	-lis	1f	-lis	1r	.	1b-	-lis
=86	=86	=86	=86	=86	=86	=86	=86	=86	=86
2r	.	2r	.	2r	.	1r	.	2r	.
[2E-\	pla-	[2B-\	pla-	[2e-\	pla-	.	.	[2g/	pla-
=87	=87	=87	=87	=87	=87	=87	=87	=87	=87
2E-\]	.	2B-\]	.	2e-\]	.	1r	.	2g/]	.
[2BB-/	-ga	[2B-\	-ga	[2d\	-ga	.	.	[2f/	-ga
=88	=88	=88	=88	=88	=88	=88	=88	=88	=88
2BB-/]	.	2B-\]	.	2d\]	.	1r	.	2f/]	.
2D\	cru-	2B-\	cru-	2d\	cru-	.	.	2f/	cru-
=89	=89	=89	=89	=89	=89	=89	=89	=89	=89
[1F	-de-	1A-	-de-	[1c	-de-	1r	.	[1f	-de-
=90	=90	=90	=90	=90	=90	=90	=90	=90	=90
!!pagebreak:original
1F]	.	1A-i	-li	1c]	.	1r	.	1f]	.
=91	=91	=91	=91	=91	=91	=91	=91	=91	=91
1C	-li	2r	.	1c	-li	1r	.	1e	-li
.	.	2G/	per-	.	.	.	.	.	.
=92	=92	=92	=92	=92	=92	=92	=92	=92	=92
2F\	per-	2A/	-cu-	2c\	per-	1r	.	2f/	per-
[2BB-/	-cu-	[2B-\	-ti-	[2d\	-cu-	.	.	[2f/	-cu-
=93	=93	=93	=93	=93	=93	=93	=93	=93	=93
4BB-/]	.	4B-\]	.	4d\]	.	1r	.	4f/]	.
4D\	-ti-	4F/	-en-	4B-\	-ti-	.	.	4f/	-ti-
2C/	-en-	4G/	.	2c\	-en-	.	.	2e-i/	-en-
.	.	4A/	.	.	.	.	.	.	.
=94	=94	=94	=94	=94	=94	=94	=94	=94	=94
1BB-	-tes,	1B-	-tes,	1G	-tes,	1r	.	1d	-tes,
=95	=95	=95	=95	=95	=95	=95	=95	=95	=95
2r	.	2r	.	2r	.	1r	.	2r	.
2C/	a-	2G/	a-	2c\	a-	.	.	2e/	a-
=96	=96	=96	=96	=96	=96	=96	=96	=96	=96
1F	-ce-	1A	-ce-	1c	-ce-	1r	.	1f	-ce-
=97	=97	=97	=97	=97	=97	=97	=97	=97	=97
1BB-	-to-	1B-	-to-	1d	-to-	1r	.	1f	-to-
=98	=98	=98	=98	=98	=98	=98	=98	=98	=98
1F	-po-	1A	-po-	1c	-po-	1r	.	1f	-po-
=99	=99	=99	=99	=99	=99	=99	=99	=99	=99
1C	-ta-	1G	-ta-	1c	-ta-	1r	.	1e-	-ta-
=100	=100	=100	=100	=100	=100	=100	=100	=100	=100
1D	-bant	1F#	-bant	1A	-bant	1r	.	1d	-bant
=101	=101	=101	=101	=101	=101	=101	=101	=101	=101
[1GG	me.	[1G	me.	[1Bni	me.	1r	.	[1d	me.
=102	=102	=102	=102	=102	=102	=102	=102	=102	=102
1GG]	.	1G]	.	1B]	.	1r	.	1d]	.
==	==	==	==	==	==	==	==	==	==
*-	*-	*-	*-	*-	*-	*-	*-	*-	*-
!!!OTL: Omnes amici mei 
!!!COM: Ingegneri, Marc' Antonio
!!!CDT: ca. 1535/36-1592-07-01
!!!TXO: Latin
!!!ODT: 
!!!ARL: Klasztor OO. Paulinów na Jasnej Górze
!!!voices:	5
!!title: @{OTL}, @{GTL}, ed. @{ENC}
!!!pag:
!!!GTL: Responsoria in Hebdomada majore
!!!EFL: 
!!!YEM: Creative Commons CC/BY/NC/SA 4.0
!!!ENC: Marcin Konik
!!!END: 2015-0m-dd
!!!EED: Marcin Konik
!!!EEV: 
!!!ONB: Encoded in vim by Marcin Konik
!!!CharacterEncoding: utf-8
!!!RDF**kern: l=long note in original notation
!!!RDF**kern: i=editorial accidental
!!muse2ps: z14jc180F
